icons/mobile/24/svg/reading-list-24.svg

<svg width="24" height="24" viewBox="0 0 24 24" fill="none" xmlns="http://www.w3.org/2000/svg">
<path d="M10.125 15.0001C10.6082 15.0001 11 15.3919 11 15.8751C10.9999 16.3583 10.6082 16.7501 10.125 16.7501H6.375C5.89181 16.7501 5.5001 16.3583 5.5 15.8751C5.5 15.3919 5.89175 15.0001 6.375 15.0001H10.125Z" fill="black"/>
<path d="M10.125 11.5001C10.6082 11.5001 11 11.8919 11 12.3751C10.9999 12.8583 10.6082 13.2501 10.125 13.2501H6.375C5.89181 13.2501 5.5001 12.8583 5.5 12.3751C5.5 11.8919 5.89175 11.5001 6.375 11.5001H10.125Z" fill="black"/>
<path d="M10.125 8.00015C10.6082 8.00015 11 8.3919 11 8.87515C10.9999 9.35831 10.6082 9.75015 10.125 9.75015H6.375C5.89181 9.75015 5.5001 9.35831 5.5 8.87515C5.5 8.3919 5.89175 8.00015 6.375 8.00015H10.125Z" fill="black"/>
<path fill-rule="evenodd" clip-rule="evenodd" d="M16.8047 3.44741L16.8037 3.44839C17.1517 3.45779 17.5102 3.47524 17.876 3.5021H17.8779C18.1268 3.5208 18.37 3.54322 18.6074 3.56851L19.3027 3.65249L19.3037 3.65347C20.8559 3.86646 22 5.19382 22 6.75308V17.2472C21.9999 18.8051 20.8561 20.1328 19.3037 20.3458C18.8513 20.4081 18.3753 20.4598 17.877 20.4962L17.8779 20.4972C17.2961 20.5409 16.74 20.5596 16.2168 20.5617H16.2148C15.1858 20.5643 14.1743 20.8806 13.2939 21.4523C12.507 21.9637 11.492 21.9637 10.7051 21.4523C9.9346 20.9519 9.06449 20.6473 8.16895 20.5773L7.78418 20.5617C7.25754 20.5606 6.7019 20.5409 6.12109 20.4972C5.6234 20.4598 5.14779 20.4079 4.69629 20.3468C3.14417 20.1338 1.99914 18.8064 1.99902 17.2472V6.75308C1.99902 5.19532 3.14229 3.86683 4.69434 3.65347C5.14724 3.59114 5.62412 3.53856 6.12305 3.5021L6.66602 3.46792C6.84446 3.45872 7.02073 3.45309 7.19434 3.44839C8.79094 3.4041 10.3417 3.87915 11.6592 4.7355C11.8661 4.86977 12.1329 4.86977 12.3398 4.7355C13.656 3.88037 15.2079 3.40312 16.8047 3.44741ZM16.7559 5.19644C15.5408 5.16273 14.3357 5.52557 13.2939 6.2023C12.507 6.71373 11.492 6.71373 10.7051 6.2023C9.66259 5.52473 8.45848 5.16273 7.24316 5.19644C7.0843 5.20073 6.9211 5.20745 6.75586 5.21597L6.25098 5.24722C5.79207 5.28075 5.35255 5.32922 4.93359 5.38687C4.25621 5.47999 3.74902 6.06121 3.74902 6.75308V17.2472C3.74914 17.9391 4.25413 18.5184 4.93066 18.6125C5.35105 18.6693 5.79276 18.7175 6.25293 18.7521C6.78996 18.7924 7.30286 18.8107 7.78809 18.8117L8.04785 18.8175C9.34234 18.8699 10.5845 19.2881 11.6582 19.9855C11.8651 20.1198 12.1329 20.1198 12.3398 19.9855C13.485 19.2417 14.8237 18.8153 16.21 18.8117L16.96 18.797C17.2161 18.7874 17.4783 18.7722 17.7461 18.7521H17.748C18.2071 18.7186 18.6474 18.6711 19.0664 18.6134C19.7437 18.5203 20.2499 17.939 20.25 17.2472V6.75308C20.25 6.06044 19.744 5.48002 19.0664 5.38687C18.6464 5.33006 18.2058 5.28176 17.7461 5.24722C17.4048 5.22218 17.0731 5.20502 16.7559 5.19644Z" fill="black"/>
</svg>

<!-- This Source Code Form is subject to the terms of the Mozilla Public
   - License, v. 2.0. If a copy of the MPL was not distributed with this
   - file, You can obtain one at http://mozilla.org/MPL/2.0/. -->
<svg xmlns="http://www.w3.org/2000/svg" width="24" height="24" fill="none" viewBox="0 0 24 24">
    <path fill="#000" d="M10.125 15a.875.875 0 0 1 0 1.75h-3.75a.875.875 0 0 1 0-1.75zm0-3.5a.875.875 0 0 1 0 1.75h-3.75a.875.875 0 0 1 0-1.75zm0-3.5a.875.875 0 0 1 0 1.75h-3.75a.875.875 0 0 1 0-1.75z" />
    <path fill="#000" fill-rule="evenodd" d="m16.805 3.447-.001.001q.523.014 1.072.054h.002q.373.028.73.067l.695.083v.001A3.12 3.12 0 0 1 22 6.753v10.494a3.12 3.12 0 0 1-2.696 3.099q-.68.095-1.427.15v.001c-.58.044-1.137.063-1.66.065h-.002a5.4 5.4 0 0 0-2.921.89 2.38 2.38 0 0 1-2.589 0c-.77-.5-1.64-.805-2.536-.875l-.385-.015a23 23 0 0 1-3.088-.215A3.124 3.124 0 0 1 2 17.247V6.753a3.124 3.124 0 0 1 2.695-3.1q.68-.095 1.43-.15l.542-.035q.268-.014.528-.02c1.597-.044 3.148.431 4.465 1.288a.63.63 0 0 0 .68 0c1.317-.856 2.869-1.333 4.466-1.289m-.05 1.75c-1.214-.034-2.42.329-3.461 1.005a2.38 2.38 0 0 1-2.589 0c-1.042-.677-2.247-1.04-3.462-1.006q-.239.007-.487.02l-.505.031q-.689.052-1.317.14A1.375 1.375 0 0 0 3.75 6.753v10.494c0 .692.505 1.271 1.182 1.366q.631.086 1.322.14.807.059 1.535.059l.26.005a7.17 7.17 0 0 1 3.61 1.168.63.63 0 0 0 .682 0 7.15 7.15 0 0 1 3.87-1.173l.75-.015q.384-.015.786-.045h.002q.69-.05 1.318-.139a1.374 1.374 0 0 0 1.184-1.366V6.753c0-.693-.506-1.273-1.184-1.366a22 22 0 0 0-2.31-.19" clip-rule="evenodd" />
</svg>
